!!!COM: homestuck-soundtrack
!!!OTL: showtime
!!!RNB: hooktheoryid: AnLgaNDZxYp
**kern	**text
*clefG2	*
*k[b-e-a-]	*
*M4/4	*
=1	=1
4e-	Cm
4G	.
4c	.
4e-	.
=2	=2
4f	Bb
4B-	.
4d	.
4f	.
=3	=3
4g	Eb
4B-	.
4e-	.
4g	.
=4	=4
4B-	.
4e-	.
4g	.
4B-	.
=5	=5
4a-	Fm
4c	.
4f	.
4a-	.
=6	=6
4g	Eb
4B-	.
4e-	.
4g	.
=7	=7
4f	Bb
4B-	.
4d	.
4f	.
=8	=8
4g	G
4B	.
4d	.
4g	.
=9	=9
4e-	Cm
4G	.
4c	.
4e-	.
=10	=10
4f	Bb
4B-	.
4d	.
4f	.
=11	=11
4g	Eb
4B-	.
4e-	.
4g	.
=12	=12
4b-	.
4e-	.
4g	.
4b-	.
=13	=13
4a-	Fm
4c	.
4f	.
4a-	.
=14	=14
4g	G
4B	.
4d	.
4g	.
=15	=15
4e-	Cm
4G	.
4c	.
4e-	.
=16	=16
2C	.
2r	.
*-	*-